X:1
T:228. Tell Her I Am
R:jig
S:Mike Rafferty
Z:Lesl
M:6/8
K:G
B2d|:edB ~G3|DED ~G3|DED c2A|BGE E (3Bcd|
edB ~G3|DED ~G3|AGF GBA|GFE D3:|
|:{c}BAB dBG|{c}BAB dBG|A2 A AGA|BAG E~ED|
BAB deg|age d2 B|BAG GBA|GFE D3:|
|:efg ege|dBG G (3Bcd|e2 a aga|bge ~e2d|
[1 efg ege|dBG G (3Bcd|agf gba|gfe d3:|
[2 def gba|gfe d2B|BAG GBA|GFE D3||

